admin/src/theme/img/safetyequipment/big/H.svg

<svg width="32" height="32" viewBox="0 0 32 32" xmlns="http://www.w3.org/2000/svg">
  <g fill="none" fill-rule="evenodd">
    <path d="M0 0h32v32H0z"/>
    <path d="M11.24 30.8533333h9.52V32h-9.52v-1.1466667Zm8 .04L16 18.7866667l-3.24 12.1066666h6.48ZM12.96 7.82666667h6.0933333V13.92H12.96V7.82666667Zm1.1466667 1.14666666v3.79999997h3.8V8.97333333h-3.8ZM15.44 13.92v4.88h1.1466667v-4.88H15.44Zm0 7.0133333V18.8h.5733333L15.44 20.9333333Zm1.1466667-.04L16.0133333 18.8h.5733334v2.0933333Z" fill="#EC0E0E" fill-rule="nonzero"/>
  </g>
</svg>

<?xml version="1.0" encoding="UTF-8"?>
<svg width="32px" height="32px" viewBox="0 0 32 32" version="1.1" xmlns="http://www.w3.org/2000/svg" xmlns:xlink="http://www.w3.org/1999/xlink">
    <title>61A9E581-855D-4B64-B4E9-8DD24B629016</title>
    <g id="Squat-laskuri" stroke="none" stroke-width="1" fill="none" fill-rule="evenodd">
        <g id="colors_and_typography" transform="translate(-1054.000000, -1002.000000)">
            <g id="turvalaite_ikonit" transform="translate(718.000000, 906.000000)">
                <g id="Asset-34" transform="translate(336.000000, 96.000000)">
                    <rect id="Rectangle" x="0" y="0" width="32" height="32"></rect>
                    <path d="M11.24,30.8533333 L20.76,30.8533333 L20.76,32 L11.24,32 L11.24,30.8533333 Z M19.24,30.8933333 L16,18.7866667 L12.76,30.8933333 L19.24,30.8933333 Z M12.96,7.82666667 L19.0533333,7.82666667 L19.0533333,13.92 L12.96,13.92 L12.96,7.82666667 Z M14.1066667,8.97333333 L14.1066667,12.7733333 L17.9066667,12.7733333 L17.9066667,8.97333333 L14.1066667,8.97333333 Z M15.44,13.92 L15.44,18.8 L16.5866667,18.8 L16.5866667,13.92 L15.44,13.92 Z M15.44,20.9333333 L15.44,18.8 L16.0133333,18.8 L15.44,20.9333333 Z M16.5866667,20.8933333 L16.0133333,18.8 L16.5866667,18.8 L16.5866667,20.8933333 Z" id="Shape" fill="#EC0E0E" fill-rule="nonzero"></path>
                </g>
            </g>
        </g>
    </g>
</svg>
